!!!!SEGMENT: pl-wtm--r-2025_smietanski-emil-wladyslaw--marcia-zingaresca-op-20.krn
!!!cenid: 18xx:2005
!!!COM: Śmietański, Emil Władysław
!!!COM-rismid: pe50041781
!!!CDT: 1845-1886
!!!CNT: Polish
!!!OTL: Marcia Zingaresca op. 20
!!!PDT: 1867
!!!AGN: Secular; March
!!!SMS-siglum: PL-Wtm
!!!SMS-shelfmark: R 2025
!!!SMS-shelfwork: W
!!!SMS-variant:
!!!SMS-altvar:
!!!NIFC-rismid: 1001112466
!!!URL-scan: http://repozytorium.nifc.pl/skany/pl-wtm-nut--r2025
!!!ONB-nifc:
**kern	**kern	**dynam
*part1	*part1	*part1
*staff2	*staff1	*
*I"[Fortepian]	*	*
*I'pf	*	*
*clefF4	*clefG2	*
*k[]	*k[]	*
*M2/4	*M2/4	*
*>[A,A1,A,A2,B]	*>[A,A1,A,A2,B]	*
!!LO:TX:t=P:problem:all\mixed right or left:global
=1	=1	=1
*>A	*>A	*
8AAA/L 8AA	8e\L 8a 8cc	ff
8BBB/J 8BB	8d#X\ 8g#X 8b	.
16CC/LL 16C	8e\ 8a 8ee	.
16BBB/J 16BB	.	.
8AAA/J 8AA	8f\J 8a 8dd#X	.
=2	=2	=2
16GGG#X/LL 16GG#X	8e\L 8b 8ee	.
16BBB/J 16BB	.	.
8EE/J 8E	8e\J 8b 8gg#X	.
!	!LO:TX:B:t=V. Marcia Zingaresca.	!
4FF/ 4F	4a\ 4dd#X 4aa	.
=3	=3	=3
8CC/L 8C	(16e\LL 16a 16ee	.
.	16d#X\JJ)	.
(16C/L 16c	16a|/LL 16ee	.
16B/JJ)	16a|/JJ 16ee	.
(16D#X/LL 16A	8a\L 8ff	.
16B/J)	.	.
8DD#X/J 8D#	(16d#\L 16a 16ff	.
.	16e\JJ)	.
=4	=4	=4
16DD#X/LL 16D#X	8f\L 8b 8dd#X	.
16CC/ 16C	.	.
16BBB/ 16BB	8f\J 8b 8dd#	.
16AAA/JJ 16AA	.	.
8GGG#X/L 8GG#X	4e\ 4b 4ee	.
8EEE/J 8EE	.	.
=5	=5	=5
8AAA/L 8AA	8e\L 8a 8cc	.
8BBB/J 8BB	8d#X\ 8g#X 8b	.
16CC/LL 16C	8e\ 8a 8ee	.
16BBB/J 16BB	.	.
8AAA/J 8AA	8f\J 8a 8dd#X	.
=6	=6	=6
!	!LO:TX:i:t=Emil Smietansky 1867	!
16GGG/LL 16GG	8e\L 8b 8ee	.
16BBB/J 16BB	.	.
8EE/J 8E	8e\J 8b 8gg#X	.
4FF/ 4F	4a\ 4dd#X 4aa	.
!!LO:LB:g=original
=7	=7	=7
8CC\L 8C	(16e\LL 16a 16ee	.
.	16d#X\JJ)	.
(16C\L 16c	16a/LL 16ee	.
16B\JJ)	16a/JJ 16ee	.
(16D#X\LL 16A	8a\L 8ff	.
16B\J)	.	.
8DD#X\J 8D#	(16d#\L 16a 16ff	.
.	16f\JJ)	.
=8	=8	=8
16EE/LL 16E	8e\L 8g#X 8ee	.
16DD#X/ 16D#X	.	.
16CC/ 16C	8G#X\J 8c 8e 8g#	.
16BBB/JJ 16BB	.	.
4AAA/ 4AA	4A\ 4c 4e 4a	.
=9||	=9||	=9||
!	!LO:TX:b:i:t=sempre	!
8EE\L	(16e/LL 16g#X	.
.	16B/JJ)	.
16E\L 16G#X	8r	.
16B\JJ	.	.
8E\L 8G#	(>16e/LL 16g#	f
.	16b/	.
8G#\J 8B	16g#/ 16ee	.
.	16b/JJ)	.
=10	=10	=10
8EE\L	(16e/LL 16g#X	.
.	16B/JJ)	.
16E\L 16G#X	8r	.
16B\JJ	.	.
8E\L 8G#	(16e/LL 16g#	.
.	16b/	.
8G#\J 8e	16g#/ 16ee	.
.	16gg#X/JJ)	.
=11	=11	=11
.	32qqgg#X\LLL	>
.	32qqaa\JJJ	.
8E\L 8g#X	(16gg#\LL	.
.	16ff\	.
.	32qqff/LLL	.
.	32qqgg#/JJJ	.
8D#X\ 8f	16ff\	.
.	16ee\	.
.	32qqee/LLL	.
.	32qqff/JJJ	.
8C\ 8e	16ee\	.
.	16dd#X\	.
.	32qqdd#/LLL	.
.	32qqee/JJJ	.
8BB\J 8d#X	16dd#\	.
.	16cc\JJ	.
=12	=12	=12
.	32qqcc/LLL	.
.	32qqdd#X/JJJ	.
8AA\L 8c	16cc\LL	.
.	16b\	.
.	32qqb/LLL	.
.	32qqcc/JJJ	.
8GG#X\J 8B	16b\	.
.	16a\	.
.	32qqa/LLL	.
.	32qqb/JJJ	.
4FF\ 4A	16a\	.
.	16g#X\	.
.	32qqg#/LLL	.
.	32qqa/JJJ	.
.	16g#\	.
.	16f\JJ)	]]
!!LO:LB:g=original
=13	=13	=13
8EE\L	(16e/LL 16g#X	.
.	16B/JJ)	.
16E\L 16G#X	8r	.
16B\JJ	.	.
8E\L 8G#	(16e\LL 16g#	.
.	16b\	.
8G#\J 8B	16g#\ 16ee	.
.	16b\JJ)	.
=14	=14	=14
!LO:TX:t=P:problem:mixed beam	!	!
8EE/L	(16e/LL 16g#X	.
.	16B/JJ)	.
16E\L 16G#X	8r	.
16B\JJ	.	.
8E\L 8G#	(16B/LL 16e	.
.	16g#/	.
8BB\J 8G#	16e/ 16b	.
.	16ee/JJ)	.
=15	=15	=15
.	32qqdd#X/LLL	>
.	32qqee/JJJ	.
8BB\L 8d#X	(16dd#\LL	.
.	16cc\	.
.	32qqcc/LLL	.
.	32qqdd#/JJJ	.
8AA\ 8c	16cc\	.
.	16b\	.
.	32qqb/LLL	.
.	32qqcc/JJJ	.
8GG#X\ 8B	16b\	.
.	16a\	.
.	32qqa/LLL	.
.	32qqb/JJJ	.
8FF\J 8A	16a\	.
.	16g#X\JJ	.
=16	=16	=16
.	32qqg#X/LLL	.
.	32qqa/JJJ	.
8EE\L 8G#X	16g#\LL	.
.	16f\	.
.	32qqf/LLL	]
.	32qqg#/JJJ	.
8DD#X\ 8F	16f\	.
.	16e\	.
.	32qqe/LLL	.
.	32qqf/JJJ	.
8CC\ 8E	16e\	.
.	16d#X\	.
.	32qqd#/LLL	.
.	32qqe/JJJ	.
8BBB\J 8D#X	16d#\	.
.	16c\JJ)	.
=17	=17	=17
!LO:TX:t=P:problem:mixed beam	!	!
8EEE/L 8EE	16B/LL 16e	.
.	16G#X/JJ	.
16E\L 16B	8r	.
16G#X\JJ	.	.
8BB\L 8G#	16B/LL 16e	.
.	16g#X/	<
8E\J 8G#	16e/ 16b	.
.	16ee/JJ	.
=18	=18	=18
8EE\L	16e/LL 16g#X	.
.	16B/JJ	.
16E\L 16G#X	8r	.
16B\JJ	.	.
8E\L 8G#	16e/LL 16g#	.
.	16b/	.
8G#\J 8e	16g#/ 16ee	.
.	16gg#X/JJ	.
!!LO:LB:g=original
=19	=19	=19
.	32qqgg#X/LLL	>
.	32qqaa/JJJ	.
8E\L 8g#X	(16gg#\LL	.
.	16ff\	.
.	32qqff/LLL	.
.	32qqgg#/JJJ	.
8D#X\ 8f	16ff\	.
.	16ee\	.
.	32qqee/LLL	.
.	32qqff/JJJ	.
8C\ 8e	16ee\	.
.	16dd#X\	.
.	32qqdd#/LLL	.
.	32qqee/JJJ	.
8BB\J 8d#X	16dd#\	.
.	16cc\JJ	.
=20	=20	=20
.	32qqcc/LLL	.
.	32qqdd#X/JJJ	.
8AA\L 8c	16cc\LL	.
.	16b\	.
.	32qqb/LLL	.
.	32qqcc/JJJ	.
8GG#X\J 8B	16b\	.
.	16a\	.
.	32qqa/LLL	.
.	32qqb/JJJ	.
4FF\ 4A	16a\	.
.	16g#X\	]
.	32qqg#/LLL	.
.	32qqa/JJJ	.
.	16g#\	.
.	16f\JJ)	.
=21	=21	=21
8EE/L 8E	((16e/LL 16g#X	.
.	16B/JJ	.
16E/L 16G#X	8r	.
16B/JJ	.	.
8E/L 8G#	16e/LL 16g#	.
.	16b/	.
8G#/J 8B	16g#/ 16ee	.
.	16b/JJ))	.
=22	=22	=22
8EE\L	(16e/LL 16g#X	.
.	16B/JJ	.
16E\L 16G#X	8r	.
16B\JJ	.	.
8E\L 8G#	16B/LL 16e	.
.	16g#/	.
8BB\J 8G#	16e/ 16b	.
.	16ee/JJ)	.
=23	=23	=23
.	32qqdd#X/LLL	>
.	32qqee/JJJ	.
8BB\L 8d#X	(16dd#\LL	.
.	16cc\	.
.	32qqcc/LLL	.
.	32qqdd#/JJJ	.
8AA\ 8c	16cc\	.
.	16b\	.
.	32qqb/LLL	.
.	32qqcc/JJJ	.
8GG#X\ 8B	16b\	.
.	16a\	.
.	32qqa/LLL	.
.	32qqb/JJJ	.
8FF\J 8A	16a\	.
.	16g#X\JJ	.
=24	=24	=24
.	32qqg#X/LLL	.
.	32qqa/JJJ	.
8EE\L 8G#X	16g#\LL	.
.	16f\	.
.	32qqa/LLL	]
!	!LO:TX:b:i:t=poco rit.	!
.	32qqb/JJJ	.
8FF\ 8A	16a\	.
.	16g#\	.
.	32qqg#/LLL	.
.	32qqa/JJJ	.
8EE\ 8G#	16g#\	.
.	16f\	.
.	32qqa/LLL	.
.	32qqb/JJJ	.
8FF\J 8A	16a\	.
.	16g#\JJ)	.
!!LO:LB:g=original
=25	=25	=25
.	16qqg#X/LL	<
!	!LO:TX:b:t=molti cresc.	!
.	16qqa/JJ	.
*2\right	*	*
2EE\ 2G#X	16g#'/LL	.
.	16f'/	.
.	16e'/	.
.	16g#'/JJ	.
.	16b'\LL	.
.	16ee'\	.
.	16b'\	.
.	16ee'\JJ	.
=26	=26	=26
16EE'/LL 16E	2r	.
16FF'/ 16F	.	.
16DD#X'/ 16D#X	.	.
16EE'/ 16E	.	.
16CC'/ 16C	.	.
16DD#'/ 16D#	.	.
16BBB'/ 16BB	.	.
16CC'/JJ 16C	.	.
=27||	=27||	=27||
!	!LO:TX:b:i:t=marcatissimo.	!
8AAA/L 8AA	8e\L 8a 8cc	.
8BBB/J 8BB	8d#X\J 8g#X 8b	.
16CC/LL 16C	8e\L 8a 8ee	.
16BBB/J 16BB	.	.
8AAA/J 8AA	8f\J 8a 8dd#X	.
=28	=28	=28
16GGG#X/LL 16GG#X	8e\L 8b 8ee	.
16BBB/J 16BB	.	.
8EE/J 8E	8e\J 8b 8gg#X	.
4FF/ 4F	4a\ 4dd#X 4aa	.
=29	=29	=29
8CC\L 8C	16e\LL 16a 16ee	.
.	16d#X\JJ	.
16C\L 16c	16a/LL 16ee	.
16B\JJ	16a/JJ 16ee	.
16D#X\LL 16A	8a\L 8ff	.
16B\J	.	.
8DD#X\J 8D#	16d#\L 16a 16ff	.
.	16e\JJ	.
=30	=30	=30
16DD#X/LL 16D#X	8f\L 8b 8dd#X	.
16CC/ 16C	.	.
16BBB/ 16BB	8f\J 8b 8dd#	.
16AAA/JJ 16AA	.	.
8GGG#X/L 8GG#X	4e\ 4b 4ee	.
8EEE/J 8EE	.	.
!!LO:LB:g=original
=31	=31	=31
8AAA/L 8AA	8e\L 8a 8cc	.
8BBB/J 8BB	8d#X\ 8g 8b	.
16CC/LL 16C	8e\ 8a 8ee	.
16BBB/J 16BB	.	.
8AAA/J 8AA	8f\J 8a 8dd#X	.
=32	=32	=32
16GGG#X/LL 16GG#X	8e\L 8b 8ee	.
16BBB/J 16BB	.	.
8EE/J 8E	8e\J 8b 8gg#X	.
4FF/ 4F	4a\ 4dd#X 4aa	.
=33	=33	=33
!LO:TX:t=P:problem:mixed beam	!	!
8CC/L 8C	16e\LL 16a 16ee	.
.	16d#X\JJ	.
16C\L 16c	16a/LL 16ee	.
16B\JJ	16a/JJ 16ee	.
16D#X\LL 16A	8a\L 8ff	.
16B\J	.	.
8DD#X\J 8D#	16d#X\L 16a 16ff	.
.	16f\JJ	.
=34	=34	=34
16EE\LL 16E	8e\L 8g#X 8ee	.
16DD#X\ 16D#X	.	.
16CC\ 16C	8G#X\J 8e 8g#	.
16BBB\JJ 16BB	.	.
4AAA\ 4AA	4A\ 4c 4a	.
=35||	=35||	=35||
*k[f#c#g#]	*k[f#c#g#]	*
!LO:TX:t=P:problem:mixed beam	!	!
8AAA/L 8AA	16e/LL 16a	p <
.	16A/ 16e	.
8E\J 8c#	16e/ 16a	.
.	16A/ 16e	.
8AA\L 8E	16e/ 16a	.
.	16A/ 16e	.
8E\J 8c#	16e/ 16a	.
.	16A/JJ 16e	.
=36	=36	=36
8AA\L 8E	16a/LL 16cc#	.
.	16c#/ 16a	.
8E\J 8c#	16a/ 16cc#	.
.	16c#/ 16a	.
8AA\L 8E	16a/ 16ee	.
.	16e/ 16a	.
8E\J 8c#	16a/ 16ee	.
.	16e/JJ 16a	[[
!!LO:LB:g=original
=37	=37	=37
!	!	!LO:DY:t=ff
8AAA\L 8AA	16cc#^^\LL 16aa	ff
.	16a\ 16cc#	.
8CC#\ 8C#	16cc#^^\ 16gg#	.
.	16g#\ 16cc#	.
8FFn\ 8Fn	16cc#^^\ 16ffn	.
.	16fn\ 16cc#	.
8AA\J 8A	16cc#^^\ 16ee	.
.	16e\JJ 16cc#	.
=38	=38	=38
8BB-X^^\L 8B-X	8e^^\L 8g# 8dd 8ee	.
32qqFn/	32qqfn/	.
16E\L	16e\L	.
16D#X\JJ	16d#X\JJ	.
8E\L	4e\	.
8EE\J 8E	.	.
=39	=39	=39
16FF#'\LL 16F#	2r	p
16EE'\JJ 16E	.	.
16EE'\LL 16E	.	.
16DD'\JJ 16D	.	.
16DD'\LL 16D	.	.
16CC#'\JJ 16C#	.	.
16CC#'\LL 16C#	.	.
16BBB-X'\JJ 16BB-X	.	.
=40	=40	=40
8AAA\L 8AA	16e/LL 16a	<
.	16A/ 16e	.
8E\J 8c#	16e/ 16a	.
.	16A/ 16e	.
8AA\L 8E	16e/ 16a	.
.	16A/ 16e	.
8E\J 8c#	16e/ 16a	.
.	16A/JJ 16e	.
=41	=41	=41
8AA\L 8E	16a/LL 16cc#	.
.	16c#/ 16a	.
8E\J 8c#	16a/ 16cc#	.
.	16c#/ 16a	.
8AA\L 8E	16a/ 16ee	.
.	16e/ 16a	.
8E\J 8c#	16a/ 16ee	.
.	16e/JJ 16a	[[
=42	=42	=42
8AAA\L 8AA	16cc#\LL 16aa	ff
.	16a\JJ 16cc#	.
8CC#\ 8C#	16cc#\LL 16gg#	.
.	16g#\JJ 16cc#	.
8DD\ 8D	16a\LL 16ffn	.
.	16fn\JJ 16a	.
8FFn\J 8Fn	16a\LL 16dd	.
.	16d\JJ 16a	.
!!LO:PB:g=original
=43	=43	=43
!	!	!LO:DY:t=sff.
8EE/L 8E	8c#/L 8a 8cc#	sff
32qqFn/	16qqfn/	.
16E/L	16e/L	.
16D#X/JJ	16d#X/JJ	.
8E/L	8e/L	.
8EE/J 8E	8c#/J 8a 8cc#	sff
=44	=44	=44
!	!	!LO:DY:t=sff.
8EE/L 8E	8d/L 8g# 8ee	sff
32qqFn/	32qqfn/	.
16E/L	16e/L	.
16D#X/JJ	16d#X/JJ	.
8E/L	8e/L	.
!	!	!LO:DY:t=sff.
8EE/J 8E	8d#/J 8g# 8ee	sff
=45	=45	=45
!LO:TX:t=P:problem:mixed beam	!	!LO:DY:t=sff.
8AAA/L 8AA	8a\L 8cc# 8aa	sff
32qqB-X/	32qqb-X/	.
16A\L	16a\L	.
16G#X\JJ	16g#X\JJ	.
8A\L	8a\L	.
32qqBn/	32qqb-/	.
16A\L	16a\L	.
16G#\JJ	16g#\JJ	.
=46	=46	=46
!LO:TX:a:t=1	!	!
*>A1	*>A1	*
8A\L	8a\L	.
32qqB-X/	32qqb-X/	.
16A\L	16a\L	.
16G#\JJ	16g#\JJ	.
8A\L	8a\L	.
32qqB-/	32qqb-/	.
16A\L	16a\L	.
16G#\JJ	16g#\JJ	.
=47:|!	=47:|!	=47:|!
!LO:TX:a:t=2.	!	!
*>A2	*>A2	*
8A\L	8a\L	.
32qqB-X/	32qqb-X/	.
16A\L	16a\L	.
16G#\JJ	16g#\JJ	.
8A\L	8a\L	.
8G#\J	8g#\J	.
=48	=48	=48
*>B	*>B	*
!LO:TX:t=P:problem:mixed beam	!LO:TX:t=P:problem:mixed beam	!
!	!	!LO:DY:t=pp&colon;
8CC#/L	8e'/L 8g#	pp
.	32qqaa/	.
8G#'\ 8e	16ee'\L 16gg#	.
.	16ff##X'\JJ	.
!	!LO:TX:t=P:problem:mixed beam	!
8c#'\ 8e	8ee'\L 8gg#	.
8G#'\J 8c#	8e'/J 8g#	.
=49	=49	=49
!	!LO:TX:t=P:problem:mixed beam	!
8C#\L	8e'/L 8a	.
.	32qqbb#X/	.
8A'\ 8e	16ee'\L 16aa	.
.	16gg#'\JJ	.
8c#'\ 8e	8ee'\L 8aa	.
8A'\J 8c#	8e'\J 8a	.
!!LO:LB:g=original
=50	=50	=50
!LO:TX:t=P:problem:mixed beam	!	!
.	32qqa/	.
8CC#/L	8e'\L 8g#	.
.	32qqaa/	.
8G#\J 8e	8ee'\J 8gg#	.
!LO:TX:t=P:problem:mixed beam	!	!
.	32qqg#/	.
8DD#X/L	8d#X'\L 8f##X	.
.	32qqgg#/	.
8F##X\J 8d#X	8dd#X`\J 8ff##X	.
=51	=51	=51
!LO:TX:t=P:problem:mixed beam	!	!
.	32qqf##X/	.
8EE/L	8c#`\L 8e	.
.	32qqff##X/	.
8E\J 8c#	8cc#`\J 8ee	.
!LO:TX:t=P:problem:mixed beam	!	!
.	32qqe/	.
8GG#/L	8G#`\L 8d#X	.
.	32qqee/	.
8D#X\J 8B#X	8g#`\J 8dd#X	.
=52	=52	=52
8GG#\L	8e\L 8cc#	.
.	32qqddd#X/	.
8E\ 8c#	16ee\L 16ccc#	.
.	16bb#X\JJ	.
!	!	!LO:DY:t=sf.
8A\ 8c#	(8ee\L 8ccc#	sf
.	32qqdd#X/	.
8E\J 8c#	16e\L 16cc#	.
.	16b#X\JJ)	.
=53	=53	=53
!LO:TX:t=P:problem:mixed beam	!	!
8EE/L	8g#\L 8ee	.
.	32qqfff##X/	.
8G#\ 8B#X	16gg#\L 16eee	.
.	16ddd#X\JJ	.
8B#\ 8e	(8gg#\L 8eee	sf
.	32qqff##X/	.
8G#\J 8B#	16g#\L 16ee	.
.	16dd#X\JJ)	.
=54	=54	=54
8AA\L	8e\L 8cc#	.
.	32qqddd#X/	.
8E\ 8c#	16ee\L 16ccc#	.
.	16bb#X\JJ	.
!	!	!LO:DY:t=sf.
8A\ 8c#	(8ee\L 8ccc#	sf
.	32qqdd#X/	.
8E\J 8c#	16e\L 16cc#	.
.	16b#X\JJ)	.
=55	=55	=55
!LO:TX:t=P:problem:mixed beam	!	!
8EE/L	8g#\L 8ee	.
.	32qqfff##X/	.
8G#\ 8B#X	16gg#\L 16eee	.
.	16ddd#X\JJ	.
8B#\ 8e	(8gg#\L 8eee	.
.	32qqff##X/	.
8G#\J 8B#	16g#\L 16ee	.
.	16dd#X\JJ)	.
!!LO:LB:g=original
=56	=56	=56
8AA^^\L	8e\L 8cc#	.
.	32qqddd#X/	.
8E\J 8c#	8ee\J 8ccc#	.
!	!LO:TX:b:t=cres_:problem:dynamics with extention lines	!
.	32qqcc#/	<
8EE^^\L	8e\L 8b#X	.
.	32qqccc#/	.
8G#\J 8B#X	8ee\J 8bb#X	.
=57	=57	=57
.	32qqb#X/	.
8FF##X^^\L	8c#\L 8a	.
.	32qqbb#X/	.
8C#\J 8A	8cc#\J 8aa	.
.	32qqa/	.
8GG#^^\L	8B#X\L 8g#	.
.	32qqaa/	.
8BB#X\J 8G#	8b#\J 8gg#	.
=58	=58	=58
!LO:TX:t=P:problem:mixed beam	!	!LO:DY:t=f
8CC#/L	8e\L 8g#	f
.	32qqaa/	.
8G#\ 8e	16ee\L 16gg#	.
.	16ff##X\JJ	.
8c#\ 8e	8ee\L 8gg#	.
8G#\J 8c#	8e\J 8g#	.
=59	=59	=59
8C#\L	8e\L 8a	.
.	32qqbb#X/	.
8A\ 8e	16ee\L 16aa	.
.	16gg#\JJ	.
8c#\ 8e	8ee\L 8aa	.
8A\J 8c#	8e\J 8a	.
=60	=60	=60
!LO:TX:t=P:problem:mixed beam	!	!
.	32qqa/	.
8CC#/L	8e\L 8g#	.pp
.	32qqaa/	.
8G#\J 8e	8ee\J 8gg#	.
!LO:TX:t=P:problem:mixed beam	!	!
.	32qqg#/	.
8DD#X/L	8d#X\L 8f##X	.
.	32qqgg#/	.
8F##X\J 8d#X	8dd#X\J 8ff##X	.
=61	=61	=61
!LO:TX:t=P:problem:mixed beam	!	!
.	32qqf##X/	.
8EE/L	8c#\L 8e	.
.	32qqff##X/	.
8E\J 8c#	8cc#\J 8ee	.
.	32qqe/	.
8GG#\L	8G#\L 8d#X	.
.	32qqee/	.
8D#X\J 8B#X	8g#\J 8dd#X	.
!!LO:LB:g=original
=62	=62	=62
8AA\L	8e\L 8cc#	<
.	32qqddd#X/	.
8E\ 8c#	16ee\L 16ccc#	.
.	16bb#X\JJ	.
8A\ 8c#	(8ee^^\L 8ccc#	[ >
.	32qqdd#X/	.
8E\J 8c#	16e\L 16cc#	.
.	16b#X\JJ)	]]
=63	=63	=63
8EE\L 8G#	8g#\L 8ee	<
.	32qqfff##X/	.
8G#\ 8B#X	16gg#\L 16eee	.
.	16ddd#X\JJ	.
8B#\ 8e	8gg#^^\L 8eee	[ >
.	32qqff##X/	.
8G#\J 8B#	(16g#\L 16ee	.
.	16dd#X\JJ)	]]
=64	=64	=64
8AA\L	8e\L 8cc#	<
.	32qqddd#X/	.
8E\ 8c#	16ee\L 16ccc#	.
.	16bb#X\JJ	.
8A\ 8c#	8ee^^\L 8ccc#	[ >
.	32qqdd#X/	.
8E\J 8c#	(16e\L 16cc#	.
.	16b#X\JJ)	]]
=65	=65	=65
!LO:TX:t=P:problem:mixed beam	!	!
8DD#X/L	8f##X\L 8cc#	.
.	32qqddd#X/	>
8D#X\J 8c#	16ff##X\L 16ccc#	.
.	16bb#X\JJ	.
*clefG2	*	*
8c#/L 8a	8ff##\L 8ccc#	.
*	*8va	*
.	32qqdddd#X/	.
8a/J 8ff##X	16fff##X\L 16cccc#	.
.	16bbb#X\JJ	.
=66	=66	=66
16g#\ 16gg#	16ggg#\LL 16bbb#X	.
*	*X8va	*
!	!	!LO:DY:t=pp. sempre
16r	16gg#\ 16ggg#	pp
8r	16gg#\ 16ggg#	.
.	16gg#\JJ 16ggg#	.
4r	16gg#\LL 16ggg#	.
.	16gg#\ 16ggg#	.
.	16gg#\ 16ggg#	.
.	16gg#\JJ 16ggg#	.
=67	=67	=67
2r	16gg#\LL 16ggg#	.
.	16gg#\ 16ggg#	.
.	16gg#\ 16ggg#	.
.	16gg#\ 16ggg#	.
.	16gg#\ 16ggg#	.
.	16gg#\ 16ggg#	.
.	16gg#\ 16ggg#	.
.	16gg#\JJ 16ggg#	.
!!LO:LB:g=original
*clefG2	*	*
=68	=68	=68
8d#X/L 8g# 8b#X	16gg#\LL 16ggg#	.
.	16gg#\ 16ggg#	.
8G#/J	16aa\ 16aaa	.
.	16gg#\ 16ggg#	.
8c#/L 8f##X 8a	16ff##X\ 16fff##X	.
.	16ff##\ 16fff##	.
8G#/J	16gg#\ 16ggg#	.
.	16ff##\JJ 16fff##	.
=69	=69	=69
8B#X/L 8e 8g#	16ee\LL 16eee	.
.	16ee\ 16eee	.
8G#/J	16ff##X\ 16fff##X	.
.	16ee\ 16eee	.
8A/L 8c# 8f##X	16dd#X\ 16ddd#X	.
.	16dd#\ 16ddd#	.
8G#/J	16ee\ 16eee	.
.	16dd#\JJ 16ddd#	.
*clefF4	*	*
=70	=70	=70
!LO:TX:t=P:problem:mixed beam	!	!
8G#\L 8B#X 8g#	16b#X\LL 16bb#X	.
.	16b#\ 16bb#	.
8GG#/J	16b#\ 16bb#	.
.	16b#\ 16bb#	.
!LO:TX:t=P:problem:mixed beam	!	!
8GG#/L	16b#\ 16bb#	.
.	16b#\ 16bb#	.
8A\J 8d#X 8f##X	16cc#\ 16ccc#	.
.	16cc#\JJ 16ccc#	.
=71	=71	=71
!LO:TX:t=P:problem:mixed beam	!	!
8B#X\L 8g# 8b#X	16dd#X\LL 16ddd#X	.
.	16dd#\ 16ddd#	.
8GG#/J	16dd#\ 16ddd#	.
.	16dd#\JJ 16ddd#	.
!LO:TX:t=P:problem:mixed beam	!	!
8GG#/L	16dd#\LL 16ddd#	.
.	16dd#\ 16ddd#	.
8B#\J 8g# 8b#	16gg#\ 16ggg#	.
.	16gg#\JJ 16ggg#	.
*clefG2	*	*
=72	=72	=72
8d#X/L 8g# 8b#X	16gg#\LL 16ggg#	.
.	16gg#\ 16ggg#	.
8G#/J	16aa\ 16aaa	.
.	16gg#\ 16ggg#	.
8c#/L 8f##X 8a	16ff##X\ 16fff##X	.
.	16ff##\ 16fff##	.
8G#/J	16gg#\ 16ggg#	.
.	16ff##\JJ 16fff##	.
=73	=73	=73
8B#X/L 8e 8g#	16ee\LL 16eee	.
.	16ee\ 16eee	.
8G#/J	16ff##X\ 16fff##X	.
.	16ee\ 16eee	.
8A/L 8c# 8f##X	16dd\ 16ddd	.
.	16dd\ 16ddd	.
8G#/J	16ee\ 16eee	.
.	16dd\JJ 16ddd	.
!!LO:LB:g=original
*clefF4	*	*
=74	=74	=74
!LO:TX:t=P:problem:mixed beam	!	!
8G#\L 8B#X 8g#	16b#X\LL 16bb#X	.
.	16b#\ 16bb#	.
8GG#/J	16b#\ 16bb#	.
.	16b#\ 16bb#	.
!LO:TX:t=P:problem:mixed beam	!	!
8GG#/L	16b#\ 16bb#	.
.	16b#\ 16bb#	.
8A\J 8d#X 8f##X	16cc#\ 16ccc#	.
.	16cc#\JJ 16ccc#	.
=75	=75	=75
!LO:TX:t=P:problem:mixed beam	!	!
8B#X\L 8g# 8b#X	16dd#X\LL 16ddd#X	.
.	16dd#\ 16ddd#	.
8GG#/J	16dd#\ 16ddd#	.
.	16dd#\ 16ddd#	.
!LO:TX:t=P:problem:mixed beam	!	!
8GG#/L	16dd#\ 16ddd#	.
.	16dd#\ 16ddd#	.
8B#\J 8g# 8b#	16gg#\ 16ggg#	.
.	16gg#\JJ 16ggg#	.
=76	=76	=76
16d#X\LL	16dd#X\LL 16ddd#X	.
16d#\	16dd#\ 16ddd#	.
16g#\	16gg#\ 16ggg#	.
16g#\	16gg#\ 16ggg#	.
16d#\	16dd#\ 16ddd#	.
16d#\	16dd#\ 16ddd#	.
!	!LO:TX:b:t=cres:problem:dynamics with extention lines	!
16G#\	16g#\ 16gg#	<
16G#\JJ	16g#\JJ 16gg#	.
=77	=77	=77
16G#\LL	16g#\LL 16gg#	.
16G#\	16g#\ 16gg#	.
16d#X\	16dd#X\ 16ddd#X	.
16d#\	16dd#\ 16ddd#	.
16G#\	16g#\ 16gg#	.
16G#\	16g#\ 16gg#	.
16D#X\	16d#X\ 16dd#	.
16D#\JJ	16d#\JJ 16dd#	.
=78	=78	=78
2GG#/	16G#/LL 16g#	f >
.	16G#/ 16g#	.
.	16G#/ 16g#	.
.	16G#/ 16g#	.
.	16G#/ 16g#	.
.	16G#/ 16g#	.
.	16G#/ 16g#	.
.	16G#/JJ 16g#	.
=79	=79	=79
2r	16G#/LL 16g#	.
.	16G#/ 16g#	.
.	16G#/ 16g#	.
.	16G#/ 16g#	.
.	16G#/ 16g#	.
.	16G#/ 16g#	.
.	16G#/ 16g#	.
.	16G#/JJ 16g#	]]
!!LO:LB:g=original
=80	=80	=80
!LO:TX:t=P:problem:mixed beam	!LO:TX:t=P:problem:mixed beam	!
!	!	!LO:DY:t=pp.
8CC#/L	8e`/L 8g#	pp
.	32qqaa/	.
8G#\ 8e	16ee`\L 16gg#	.
.	16ff##X`\JJ	.
8c#\ 8e	8ee`\L 8gg#	.
8G#\J 8c#	8e`\J 8g#	.
=81	=81	=81
!	!LO:TX:t=P:problem:mixed beam	!
8C#\L	8e'/L 8a	.
.	32qqbb#X\	.
8A\ 8e	16ee`\L 16aa	.
.	16gg#`\JJ	.
8c#\ 8e	8ee`\L 8aa	.
8A\J 8c#	8e`\J 8a	.
=82	=82	=82
!LO:TX:t=P:problem:mixed beam	!	!
.	32qqa/	.
8CC#/L	8e`\L 8g#	.
.	32qqaa/	.
8G#\J 8e	8ee`\J 8gg#	.
!LO:TX:t=P:problem:mixed beam	!	!
.	32qqg#/	.
8DD#X/L	8d#X'\L 8f##X	.
.	32qqgg#/	.
8F##X\J 8d#X	8dd#X`\J 8ff##X	.
=83	=83	=83
!	!LO:TX:t=P:problem:mixed beam	!
.	32qqf##X/	.
8EE\L	8c#'/L 8e	.
.	32qqff##X/	.
8E\J 8c#	8cc#`\J 8ee	.
!	!LO:TX:t=P:problem:mixed beam	!
.	32qqe/	.
8GG#\L	8G#'/L 8d#X	.
.	32qqee/	.
8D#X\J 8B#X	8g#`\J 8dd#X	.
=84	=84	=84
8AA\L	8e\L 8cc#	<
.	32qqddd#X/	.
8E\ 8c#	16ee\L 16ccc#	.
.	16bb#X\JJ	.
8A\ 8c#	(8ee^^\L 8ccc#	[ >
.	32qqdd#X/	.
8C#\J 8c#	16e\L 16cc#	.
.	16b#X\JJ)	]]
=85	=85	=85
8EE\L 8G#	8g#\L 8ee	<
.	32qqfff##X/	.
8G#\ 8B#X	16gg#\L 16eee	.
.	16ddd#X\JJ	.
8B#\ 8e	(8gg#^^\L 8eee	[ >
.	32qqff##X/	.
8G#\J 8B#	16g#\L 16ee	.
.	16dd#X\JJ)	]]
!!LO:PB:g=original
=86	=86	=86
!LO:TX:t=P:problem:mixed beam	!	!
8AA/L	8e\L 8cc#	.
.	32qqddd#X/	.
8E\ 8c#	16ee\L 16ccc#	.
.	16bb#X\JJ	.
8A\ 8c#	8ee\L 8ccc#	.
.	32qqdd#X/	.
8E\J 8c#	16e\L 16cc#	.
.	16b#X\JJ	.
=87	=87	=87
8EE\L 8G#	8g#\L 8ee	.
.	32qqfff##X/	.
8G#\ 8e	16gg#\L 16eee	.
.	16ddd#X\JJ	.
8B#X\ 8e	8gg#\L 8eee	.
.	32qqff##X/	.
8G#\J 8e	16g#\L 16ee	.
.	16dd#X\JJ	.
=88	=88	=88
8AA^^\L	8e`\L 8cc#	.
.	32qqddd#X/	.
8E\J 8c#	8ee`\J 8ccc#	.
!LO:TX:t=P:problem:mixed beam	!	!
.	32qqcc#/	<
8EE^^</L	8e`\L 8b#X	.
.	32qqccc#/	.
8G#\J 8B#X	8ee\J 8bb#X	.
=89	=89	=89
.	32qqb#X/	.
8GG#^^\L	8c#`\L 8a	.
.	32qqbb#X/	.
8C#\J 8A	8cc#`\J 8aa	.
.	32qqa/	[
8GG#^^\L	8B#X'\L 8g#	.
.	32qqaa/	.
8BB#X\J 8G#	8b#'\J 8gg#	.
=90	=90	=90
!LO:TX:t=P:problem:mixed beam	!LO:TX:t=P:problem:mixed beam	!
8CC#/L	8e/L 8g#	<
.	32qqaa/	.
8G#\ 8e	16ee\L 16gg#	.
.	16ff##X\JJ	.
8c#\ 8e	8ee\L 8gg#	.
8G#\J 8c#	8e\J 8g#	.
=91	=91	=91
8C#\L	8e\L 8a	.
.	32qqbb#X/	.
8A\ 8e	16ee\L 16aa	.
.	16gg#\JJ	.
8c#\ 8e	8ee\L 8aa	.
8A\J 8c#	8e\J 8a	[[
!!LO:LB:g=original
=92	=92	=92
!LO:TX:t=P:problem:mixed beam	!	!
.	32qqb-X/	p
8DD^^\L	8fn`\L 8a	.
.	32qqbb-X/	.
8A\J 8fn	8ffn`\J 8aa	.
!LO:TX:t=P:problem:mixed beam	!	!
.	32qqa/	.
8EE^^\L	8e`\L 8g#	.
.	32qqaa/	.
8G#\J 8e	8ee`\J 8gg#	.
=93	=93	=93
!LO:TX:t=P:problem:mixed beam	!	!
.	32qqg#/	.
8FFn^^\L	8d`\L 8fn	.
.	32qqgg#/	.
8Fn\J 8d	8dd`\J 8ffn	.
.	32qqfn/	.
8AA^^\L	8A`\L 8e	.
.	32qqffn/	.
8E\J 8c#	8a`\J 8ee	.
=94	=94	=94
!LO:TX:t=P:problem:mixed beam	!	!LO:DY:t=mf.
8DD/L	8fn\L 8a	mf
.	32qqbb-X/	.
8A\ 8fn	16ffn\L 16aa	.
.	16gg#\JJ	.
8d\ 8f	8ff\L 8aa	.
8A\J 8d	8f\J 8a	.
=95	=95	=95
8D\L	8fn\L 8b-X	f
.	32qqccc#/	.
8B-X\ 8fn	16ffn\L 16bb-X	.
.	16aa\JJ	.
8d\ 8f	8ff\L 8bb-	.
8B-\J 8d	8f\J 8b-	.
=96	=96	=96
!LO:TX:t=P:problem:mixed beam	!	!
.	32qqccn-X/	.
8EE-X/L	8g-X\L 8b-X	.
.	32qqccc-X/	.
8B-X\J 8g-X	8gg-X\J 8bb-X	.
!LO:TX:t=P:problem:mixed beam	!	!
.	32qqb-/	<
!	!LO:TX:b:t=cres_:problem:dynamics with extention lines	!
8FFn/L	8fn\L 8a	.
.	32qqbb-/	.
8A\J 8fn	8ffn\J 8aa	.
=97	=97	=97
.	32qqa/	.
8GG-X\L	8e-X\L 8g-X	.
.	32qqaa/	.
8G-X\J 8e-X	8ee-X\J 8gg-X	.
!!LO:LB:g=original
=-	=-	=-
.	32qqg-X/	.
8BB-X\L	8B-X\L 8fn	.
.	32qqgg-X/	.
8Fn\J 8d	8b-X\J 8ffn	[[
=98	=98	=98
!LO:TX:t=P:problem:mixed beam	!	!
8EE-X/L	8g-X\L 8b-X	f
.	32qqcccn-X/	.
8B-X\ 8g-X	16gg-X\L 16bb-X	.
.	16aa\JJ	.
8e-X\ 8g-	8gg-\L 8bb-	.
8B-\J 8e-	8g-\J 8b-	.
=99	=99	=99
!	!	!LO:DY:t=ff. sempre.
16AA\LL 16A	8cnX-X/L 8fn 8a	ff
16GG-X\ 16G-X	.	.
16FFn\ 16Fn	8c#X/J 8f 8a	.
16EE-X\JJ 16E-X	.	.
8DD\L 8D	4B-X/ 4f 4b-X	.
8BBB-X\J 8BB-X	.	.
=100	=100	=100
!LO:TX:t=P:problem:mixed beam	!	!
8BBB-X/L 8BB-X	8e-X\L 8g-X 8cc-X	.
.	32qqddd-X/	.
8G-X\ 8e-X	16ee-X\L 16gg-X 16ccc-X	.
.	16bb-X\JJ	.
8c-X\ 8e-	8ee-\L 8gg- 8ccc-	.
8G-\J 8c-	8e-\J 8g- 8cc-	.
=101	=101	=101
!	!LO:TX:t=cres_:problem:dynamics with extention lines	!
8BB-X\L	8en\L 8gn 8ccn	<
.	32qqddd-X/	.
8Gn\ 8en	16een\L 16ggn 16cccn	.
.	16bbn\JJ	.
8cn\ 8e	8ee\L 8gg 8ccc	.
8G\J 8c	8e\J 8g 8cc	.
=102	=102	=102
!LO:TX:t=P:problem:mixed beam	!	!
8BBB-X/L	8fn\L 8a-X 8dd-X	.
8A-X\J 8d-X 8fn	8ffn\J 8aa-X 8ddd-X	.
8BB-X\L	8f#X\L 8an 8ddn	.
8An\J 8dn 8f#X	8ff#X\J 8aan 8dddn	.
!!LO:LB:g=original
=103	=103	=103
!LO:TX:t=P:problem:mixed beam	!	!
8BBB-X/L	8gn\L 8b-X 8ee-X	.
8B-X\J 8e-X 8gn	8ggn\J 8bb-X 8eee-X	.
8BB-X\L	8g#X\L 8bn 8een	.
8Bn\J 8en 8g#X	8gg#X\J 8bbn 8eeen	[[
=104	=104	=104
!	!	!LO:DY:t=fff.
16DD#X/LL 16D#X	8fn\L 8b 8dd#X	fff
16CC#/ 16C#	.	.
16BBB/ 16BB	8f\J 8b 8dd#	.
16AAA/JJ 16AA	.	.
8GGG#/L 8GG#	4e\ 4b 4ee	.
8EEE/J 8EE	.	.
=105	=105	=105
!	!	!LO:DY:t=f
16D#X\LL 16d#X	8ffn\L 8bb 8ddd#X	f
16Cn\ 16cn	.	.
16BB\ 16B	8ff\J 8bb 8ddd#	.
16AA\JJ 16A	.	.
8GG#\L 8G#	4ee\ 4bb 4eee	.
8EE\J 8E	.	.
=106	=106	=106
8C#\L 8c#	8gg#\L 8cccn 8eee	p
*clefG2	*	*
.	32qqfffn/	.
8e\ 8g#X 8cc#	16gg#\L 16ccc 16eee	.
.	16ddd#X\JJ	<
!	!LO:TX:b:t=cres_:problem:dynamics with extention lines	!
8g#\ 8cc# 8ee	8gg#\L 8ccc 8eee	.
8e\J 8g# 8cc#	8ee\J 8gg# 8ccc	.
*clefF4	*	*
=107	=107	=107
!LO:TX:t=P:problem:mixed beam	!	!
8EE/L 8E	8ee\L 8gg# 8bb	.
.	32qqcccn/	.
8B\ 8e 8g#	16ee\L 16gg# 16bb	.
.	16aa\JJ	.
8e\ 8g# 8b	8ee\L 8gg# 8bb	.
8B\J 8e 8a	8b\J 8ee 8gg#	[[
!!LO:LB:g=original
=108	=108	=108
!LO:TX:t=P:problem:mixed beam	!	!
8CCn/L 8Cn	8g#\L 8ccn 8ee	f
.	32qqffn/	.
8E\ 8G# 8cn	16g#\L 16cc 16ee	.
.	16dd#X\JJ	.
8G#\ 8c 8e	8g#\L 8cc 8ee	.
8E\J 8G# 8c	8e\J 8g# 8cc	.
=109	=109	=109
!LO:TX:t=P:problem:mixed beam	!	!
8EEE/L 8EE	8e\L 8g# 8b	.
.	32qqccn/	.
8BB\ 8E 8G#	16e\L 16g# 16b	.
.	16a\JJ	.
8E\ 8G# 8B	8e\L 8g# 8b	.
8BB\J 8E 8G#	8B\J 8e 8g#	.
=110	=110	=110
!LO:TX:t=P:problem:mixed beam	!	!
8EEE/L 8EE	8E/L	ff
32qqD#X/	32qqd#X/	.
8E\J	8e/J	.
[>4EEE^^/ [4EE	[4E^^</	.
=111	=111	=111
!LO:TX:t=P:problem:mixed beam	!	!
8EEE/L] 8EE]	8E/L]	.
32qqD#X/	32qqd#X/	.
8E\J	8e/J	.
[4EEE^^/ [4EE	[4E^^</	.
=112	=112	=112
!LO:TX:t=P:problem:mixed beam	!LO:TX:t=P:problem:mixed beam	!
8EEE/L] 8EE]	8E/L]	.
32qqd#X\	32qqdd#X/	.
8e\J	8ee\J	.
8EE\L 8E	8e\L	.
32qqd#\	32qqdd#/	.
8e\J	8ee\J	.
=113	=113	=113
!	!LO:TX:t=[segno]	!
16EE/LL 16E	2r	.
16FFn/ 16Fn	.	.
16DD#X/ 16D#X	.	.
16EE/ 16E	.	.
16CCn/ 16Cn	.	.
16DD#/ 16D#	.	.
16BBB/ 16BB	.	.
16CC/JJ 16C	.	.
!!LO:LB:g=original
=114||	=114||	=114||
*k[]	*k[]	*
!	!LO:TX:b:i:t=marcatissimo	!
8AAA/L 8AA	8e\L 8a 8cc	.
8BBB/J 8BB	8d#X\ 8g#X 8b	.
16CC/LL 16C	8e\ 8a 8ee	.
16BBB/J 16BB	.	.
8AAA/J 8AA	8f\J 8a 8dd#X	.
=115	=115	=115
16GGG#X/LL 16GG#X	8e\L 8b 8ee	.
16BBB/J 16BB	.	.
8EE/J 8E	8e\J 8b 8gg#X	.
4FF/ 4F	4a\ 4dd#X 4aa	.
=116	=116	=116
!LO:TX:t=P:problem:mixed beam	!	!
8CC/L 8C	N(16e\LL 16a 16ee	.
.	16d#X\JJ	.
16C\L 16c	16a'/LL 16ee	.
16B\JJN)	16a'/JJ 16ee	.
(16D#X\LL 16A	8a'\L 8ff	.
16B\J	.	.
8DD#X\J) 8D#	(16e\L 16a 16ff	.
.	16e\JJ)	.
=117	=117	=117
16DD#X/LL 16D#X	8f\L 8b 8dd#X	.
16CC/ 16C	.	.
16BBB/ 16BB	8f\J 8b 8dd#	.
16AAA/JJ 16AA	.	.
8GGG#X/L 8GG#X	4e\ 4b 4ee	.
8EEE/J 8EE	.	.
=118	=118	=118
8AAA/L 8AA	8e\L 8a 8cc	.
8BBB/J 8BB	8d#X\ 8g#X 8b	.
16CC/LL 16C	8e\ 8a 8ee	.
16BBB/J 16BB	.	.
8AAA/J 8AA	8f\J 8a 8dd#X	.
=119	=119	=119
16GGG#X/LL 16GG#X	8e\L 8b 8ee	.
16BBB/J 16BB	.	.
8EE/J 8E	8e\J 8b 8gg#X	.
4FF/ 4F	4a\ 4dd#X 4aa	.
!!LO:LB:g=original
=120	=120	=120
8CC\L 8C	N(16e\LL 16a 16ee	.
.	16d#X\JJ	.
16C\L 16c	16a'/LL 16ee	.
16B\JJN)	16a'/JJ 16ee	.
(16BB#X\LL 16A	8a\L 8ff	.
16B\J)	.	.
8DD'\J 8D	(16d#\L 16a 16ff	.
.	16e\JJ)	.
=121	=121	=121
16EE\LL 16E	8e\L 8g#X 8ee	.
16DD#X\ 16D#X	.	.
16CC\ 16C	8G#X\J 8e 8g#	.
16BBB\JJ 16BB	.	.
4AAA\ 4AA	4A\ 4c 4a	.
=122||	=122||	=122||
8EE\L	16e/LL 16g#X	mf
.	16B/JJ	.
16E\L 16G#X	8r	.
16B\JJ	.	.
!	!LO:TX:b:t=legato.	!
8E\L 8G#	16e/LL 16g#	.
.	16b/	.
8G#\J 8B	16g#/ 16ee	.
.	16b/JJ	.
=123	=123	=123
8EE\L	16e/LL 16g#X	.
.	16B/JJ	.
16E\L 16G#X	8r	.
16B\JJ	.	.
8E\L 8G#	16e/LL 16g#	.
.	16b/	.
8G#\J 8e	16g#/ 16ee	.
.	16gg#X/JJ	.
=124	=124	=124
.	32qqgg#X/LLL	>
.	32qqaa/JJJ	.
8E\L 8g#X	16gg#\LL	.
.	16ff\	.
.	32qqff/LLL	.
.	32qqgg#/JJJ	.
8D#X\ 8f	16ff\	.
.	16ee\	.
.	32qqee/LLL	.
.	32qqff/JJJ	.
8C\ 8e	16ee\	.
.	16dd#X\	.
.	32qqdd#/LLL	.
.	32qqee/JJJ	.
8BB\J 8d#X	16dd#\	.
.	16cc\JJ	.
=125	=125	=125
.	32qqcc/LLL	.
.	32qqdd#X/JJJ	.
8AA\L 8c	16cc\LL	.
.	16b\	.
.	32qqb/LLL	.
.	32qqcc/JJJ	.
8GG#X\J 8B	16b\	.
.	16a\	.
.	32qqa/LLL	.
.	32qqb/JJJ	.
4FF\ 4A	16a\	.
.	16g#X\	.
.	32qqg#/LLL	.
.	32qqa/JJJ	.
.	16g#\	.
.	16f\JJ	]]
!!LO:PB:g=original
=126	=126	=126
!LO:TX:t=P:problem:mixed beam	!	!
8EE/L	(16e/LL 16g#X	<
.	16B/JJ	.
(16E\L 16G#X	8r	.
16B\JJ)	.	.
8E\L 8G#	16e/LL 16g#	.
.	16b/	.
8G#\J 8B	16g#/ 16ee	.
.	16b/JJ)	.
=127	=127	=127
!LO:TX:t=P:problem:mixed beam	!	!
8EE/L	(16e/LL 16g#X	.
.	16B/JJ)	.
(16E\L 16G#X	8r	.
16B\JJ)	.	.
8E\L 8G#	(16B/LL 16e	.
.	16g#/)	.
8BB\J 8G#	(16e/ 16b	.
.	16ee/JJ)	[[
=128	=128	=128
.	32qqdd#X/LLL	>
.	32qqee/JJJ	.
8BB\L 8d#X	(16dd#\LL	.
.	16cc\)	.
.	32qqcc/LLL	.
.	32qqdd#/JJJ	.
8AA\ 8c	(16cc\	.
.	16b\)	.
.	32qqb/LLL	.
.	32qqcc/JJJ	.
8GG#X\ 8B	(16b\	.
.	16a\)	.
.	32qqa/LLL	.
.	32qqb/JJJ	.
8FF\J 8A	(16a\	.
.	16g#X\JJ)	.
=129	=129	=129
.	32qqg#X/LLL	.
.	32qqa/JJJ	.
8EE\L 8G#X	(16g#\LL	.
.	16f\)	.
.	32qqf/LLL	]
.	32qqg#/JJJ	.
8DD#X\J 8F	(16f\	.
.	16e\)	.
.	32qqe/LLL	.
.	32qqf/JJJ	.
8CC/L 8E	(16e\	.
.	16d#X\)	.
.	32qqd#/LLL	.
.	32qqe/JJJ	.
8BBB/J 8D#X	(16d#\	.
.	16c\JJ)	.
=130	=130	=130
!LO:TX:t=P:problem:mixed beam	!	!
8EEE/L 8EE	(16B/LL 16e	.
.	16G#X/JJ)	.
(16E\L 16B	8r	.
16G#X\JJ)	.	.
8BB\L 8G#	(16B/LL 16e	.
.	16g#X/)	.
8E\J 8G#	(16e/ 16b	.
.	16ee/JJ)	.
=131	=131	=131
!LO:TX:t=P:problem:mixed beam	!	!
8EE/L	(16e/LL 16g#X	.
.	16B/JJ)	.
16E\L 16G#X	8r	.
16B\JJ	.	.
8E\L 8G#	(16e\LL 16g#	.
.	16b\)	.
8G#\J 8e	(16g#\ 16ee	.
.	16gg#X\JJ)	.
!!LO:LB:g=original
=132	=132	=132
.	32qqgg#X/LLL	>
.	32qqaa/JJJ	.
8E\L 8g#X	(16gg#\LL	.
.	16ff\)	.
.	32qqff/LLL	.
.	32qqgg#/JJJ	.
8D#X\ 8f	(16ff\	.
.	16ee\)	.
.	32qqee/LLL	.
.	32qqff/JJJ	.
8C\ 8e	(16ee\	.
.	16dd#X\)	.
.	32qqdd#/LLL	.
.	32qqee/JJJ	.
8BB\J 8d#X	(16dd#\	.
.	16cc\JJ)	.
=133	=133	=133
.	32qqcc/LLL	.
.	32qqdd#X/JJJ	.
8AA\L 8c	(16cc\LL	.
.	16b\)	.
.	32qqb/LLL	.
.	32qqcc/JJJ	.
8GG#X\J 8B	(16b\	.
.	16a\)	.
.	32qqa/LLL	.
.	32qqb/JJJ	.
4FF\ 4A	(16a\	.
.	16g#X\)	.
.	32qqg#/LLL	.
.	32qqa/JJJ	.
.	(16g#\	.
.	16f\JJ)	]]
=134	=134	=134
8EE\L 8E	16e/LL 16g#X	.
.	16B/JJ	.
16E\L 16G#X	8r	.
16B\JJ	.	.
8E\L 8G#	16e\LL 16g#	.
.	16b\	.
8G#\J 8B	16g#\ 16ee	.
.	16b\JJ	.
=135	=135	=135
8EE\L 8E	16e/LL 16g#X	.
.	16B/JJ	.
16E\L 16G#X	8r	.
16B\JJ	.	.
8E\L 8G#	16B/LL 16e	.
.	16g#/	.
8BB\J 8G#	16e/ 16b	.
.	16ee/JJ	.
=136	=136	=136
.	32qqdd#X/LLL	.
.	32qqee/JJJ	.
8BB\L 8d#X	16dd#\LL	.
.	16cc\	.
.	32qqcc/LLL	.
.	32qqdd#/JJJ	.
8AA\ 8c	16cc\	.
.	16b\	.
.	32qqb/LLL	.
.	32qqcc/JJJ	.
8GG#X\ 8B	16b\	.
.	16a\	.
.	32qqa/LLL	.
.	32qqb/JJJ	.
8FF\J 8A	16a\	.
.	16g#X\JJ	.
=137	=137	=137
.	32qqg#X/LLL	.
!	!LO:TX:b:i:t=poco rit.	!
.	32qqa/JJJ	.
8EE\L 8G#X	16g#\LL	.
.	16f\	.
.	32qqa/LLL	.
.	32qqb/JJJ	.
8FF\J 8A	16a\	.
.	16g#\JJ	.
!!LO:LB:g=original
=-	=-	=-
.	32qqg#X/LLL	.
.	32qqa/JJJ	.
8EE\L 8G#	16g#/LL	.
.	16f/JJ	.
.	32qqa/LLL	.
.	32qqb/JJJ	.
8FF\J 8A	16a/LL	.
.	16g#/JJ	.
=138	=138	=138
.	16qqg#X/LL	f
.	16qqa/JJ	.
*2\left	*	*
2EE\ 2G#X	16g#'/LL	.
.	16f'/	.
.	16e'/	.
.	16g#'/	.
.	16b'/	.
.	16ee'/	.
.	16b'/	.
.	16ee'/JJ	.
=139	=139	=139
16EE/LL 16E	2r	.
16FF/ 16F	.	.
16DD#X/ 16D#X	.	.
16EE/ 16E	.	.
16CC/ 16C	.	.
16DD#/ 16D#	.	.
16BBB/ 16BB	.	.
16CC/JJ 16C	.	.
=140||	=140||	=140||
!	!LO:TX:b:i:t=marcatissimo.	!
8AAA/L 8AA	8e\L 8a 8cc	.
8BBB/J 8BB	8d#X\ 8g#X 8b	.
16CC/LL 16C	8e\ 8a 8ee	.
16BBB/J 16BB	.	.
8AAA/J 8AA	8f\J 8a 8dd#X	.
=141	=141	=141
16GGG#X/LL 16GG#X	8e\L 8b 8ee	.
16BBB/J 16BB	.	.
8EE/J 8E	8e\J 8b 8gg#X	.
4FF/ 4F	4a\ 4dd 4aa	.
=142	=142	=142
!LO:TX:t=P:problem:mixed beam	!	!
8CC/L 8C	16e\LL (16a 16ee	.
.	16d#X\JJ)	.
(16C\L 16c	16a/LL 16ee	.
16B\JJ)	16a/JJ 16ee	.
(16D#X/LL 16A	8a\L 8ff	.
16B/J)	.	.
8DD#X/J 8D#	(16d#\L 16a 16ff	.
.	16e\JJ)	.
=143	=143	=143
16DD#X/LL 16D#X	8f\L 8b 8dd#X	.
16CC/ 16C	.	.
16BBB/ 16BB	8f\J 8b 8dd#	.
16AAA/JJ 16AA	.	.
8GGG#X/L 8GG#X	4e\ 4b 4ee	.
8EEE/J 8EE	.	.
!!LO:LB:g=original
=144	=144	=144
8AAA/L 8AA	8e\L 8a 8cc	.
8BBB/J 8BB	8d#X\ 8g#X 8b	.
16CC/LL 16C	8e\ 8a 8ee	.
16BBB/J 16BB	.	.
8AAA/J 8AA	8f\J 8a 8dd#X	.
=145	=145	=145
16GGG#X/LL 16GG#X	8e\L 8b 8ee	.
16BBB/J 16BB	.	.
8EE/J 8E	8e\J 8b 8gg#X	.
4FF/ 4F	4a\ 4dd#X 4aa	.
=146	=146	=146
8CC\L 8C	16e\LL 16a 16ee	.
.	16d#X\JJ	.
16C\L 16c	16a/LL 16ee	.
16B\JJ	16a/JJ 16ee	.
(16D#X\LL 16A	8a`\L 8ff	.
16B\J)	.	.
8DD#X'\J 8D#	(16d#\L 16a 16ff	.
.	16f\JJ)	.
=147	=147	=147
8DDn\L 8Dn	16f\LL 16b-X 16ff	.
.	16e-X\JJ	.
16D\L 16d	16b-/LL 16ff	.
16c-X\JJ	16b-/JJ 16ff	.
(16E\LL 16B-X	8g-X`\L 8b- 8gg-X	.
16cn\J)	.	.
8EE'\J 8E	(16en\L 16b- 16gg-	.
.	16g-X\JJ)	.
=148	=148	=148
8DD#X\L 8D#X	16f#X\LL 16bn 16ff#X	.
.	16e\JJ	.
16D#\L 16d#X	16b/LL 16ff#	.
16c\JJ	16b/JJ 16ff#	.
(16E#X\LL 16B	8g\L 8b 8gg	.
16c#X\J)	.	.
8EE#X'\J 8E#	(16e#X\L 16b 16gg	.
.	16g\JJ)	.
=149	=149	=149
(16F#X\LL 16B#X	8g#X\L 8b#X 8gg#X	.
16d#X\J)	.	.
8FF#X'\J 8F#	(16f#X\L 16b# 16gg#	.
.	16g#\JJ)	.
(16G\LL 16c#X	8a'\L 8cc#X 8aa	.
16d#X\J)	.	.
8GG'\J 8G	(16gn\L 16cc# 16aa	.
.	16a\JJ)	.
!!LO:LB:g=original
=150	=150	=150
!	!	!LO:DY:t=fff.
(16G#X\LL 16d	8b-X`\L 8dd 8bb-X	fff
16e\J)	.	.
8GG#X'\J 8G#	(16g#X\L 16dd 16bb-	.
.	16b-\JJ)	.
(16G#\LL 16d	8b-`\L 8dd 8bb-	.
16e\J)	.	.
8GG#'\J 8G#	(16g#\L 16dd 16bb-	.
.	16b-\JJ)	.
=151	=151	=151
!LO:TX:t=P:problem:mixed beam	!	!
8AAA\L 8AA	8a\L 8cc#X 8aa	.
8A\ 8c#X	16aa#X\L 16ccc#X 16aaa	.
.	16ggg#X\JJ	.
8c#\ 8a	8aa#\L 8ccc# 8aaa	.
8A\J 8c#	8a\J 8cc# 8aa#	.
=152	=152	=152
!	!	!LO:DY:t=fff.
(16G#X\LL 16d	8b-X'\L 8dd 8bb-X	fff
16e\J)	.	.
8GG#X'\J 8G#	(16g#X\L 16dd 16bb-	.
.	16b-\JJ)	.
(16G#\LL 16d	8b-'\L 8dd 8bb-	.
16e\J)	.	.
8GG#'\J 8G#	(16g#\L 16dd 16bb-	.
.	16b-\JJ)	.
=153	=153	=153
!LO:TX:t=P:problem:mixed beam	!	!
8AAA/L 8AA	8a\L 8cc#X 8aa	.
8A\ 8c#X	16aa#X\L 16ccc#X 16aaa	.
.	16ggg#X\JJ	.
8c#\ 8a	8aa#\L 8ccc# 8aaa	.
8A\J 8c#	8a\J 8cc# 8aa#	.
=154	=154	=154
!LO:TX:t=P:problem:mixed beam	!	!
8BBB-X/L 8BB-X	8e\L 8g#X 8ee	.
8E\ 8G#X	16ee\L 16gg#X 16eee	.
.	16fff\JJ	.
8G#\ 8d	8ee\L 8gg# 8eee	.
8E\J 8G#	8e\J 8g# 8ee	.
=155	=155	=155
8AAA/L	8A\L 8c#X 8a	.
8AA/J 8C#X	16a\L 16cc#X 16aa	.
.	16gg#X\JJ	.
8C#\L 8A	8a\L 8cc# 8aa	.
8AA\J 8C#	8A\J 8c# 8a	.
!!LO:LB:g=original
=156	=156	=156
!	!LO:TX:t=P:problem:mixed beam	!
8BBB-X\L	8E/L 8G#X 8e	.
8EE\ 8GG#X	16e\L 16g#X 16ee	.
.	16ff\JJ	.
!	!LO:TX:t=P:problem:mixed beam	!
8GG#\ 8D	8e\L 8g# 8ee	.
8EE\J 8GG#	8E/J 8G# 8e	.
=157	=157	=157
!	!LO:TX:b:i:t=marcatissimo.	!
8AAA/L 8AA	8A/L	.
32qqBB-X/	32qqB-X/	.
16AA/L	16A/L	.
16GG#X/JJ	16G#X/JJ	.
8AA/L	8A/L	.
8EE/J	8E/J	.
=158	=158	=158
8AAA/L 8AA	8A/L	.
8EE/J	8E/J	.
8AAA/L 8AA	8A/L	.
8EE/J	8E/J	.
=159	=159	=159
8AAA/L 8AA	8A/L	.
32qqBB-X\	32qqB-X/	.
16AA/L	16A/L	.
16GG#X/JJ	16G#X/JJ	.
8AA/L	8A/L	.
8EE/J	8E/J	.
=160	=160	=160
8AAA/L 8AA	8A/L	.
8EE/J	8E/J	.
8AAA/L 8AA	8A/L	.
8EE/J	8E/J	.
=161	=161	=161
16AAA/LL 16AA	16A/LL	.
16AA/	16A/	.
16AA/	16A/	.
16AA/	16A/	.
16AA/	16A/	.
16AA/	16A/	.
16AA/	16A/	.
16AA/JJ	16A/JJ	.
!!LO:LB:g=original
=162	=162	=162
16AAA/LL 16AA	16A/LL	.
16AA/	16A/	.
16AA/	16A/	.
16AA/	16A/	.
16AA/	16A/	.
16AA/	16A/	.
16AA/	16A/	.
16AA/JJ	16A/JJ	.
=163	=163	=163
32qqEE/LLL	32qqE/LLL	.
32qqFF/	32qqF/	.
!	!LO:TX:b:t=Fine.	!
32qqGG#X/JJJ	32qqG#X/JJJ	.
*2\right	*	*
2AAA;\ 2AA	2A;/	.
==	==	==
*-	*-	*-
!!!system-decoration: {(s1,s2)}
!!!RDF**kern: < = below
!!!RDF**kern: > = above
!!!RDF**kern: | = vertical stroke
!!!RDF**kern: N = linked
!!!RDF**dynam: ff = “ff.”
!!!RDF**dynam: f = “f.”
!!!RDF**dynam: pp = “pp.”
!!!RDF**dynam: p = “p.”
!!!ENC: Marta Chmielewska
!!!END: 2021-05-24
!!!ENC: Tomasz Grochalski
!!!END: 2021-05-06
